X: 4590
T: Bould Thady Quill, The
R: jig
M: 6/8
K: Dmajor
A|DFE FDE|DDD DFA|dcd BAF|FED E2F/G/|
ABA AFE|DED DFA|dcd BAF|EDC D3||
A|ABc dcd|edc BAA|dcd BAF|FED E2F/G/|
ABA AFE|DED DFA|dcd BAF|EDC D3||

